X:1
T:Title
%%score ( 1 2 ) { 3 | 4 }
L:1/8
M:4/4
K:Ab
V:1 treble nm="Bright Piano"
V:2 treble 
V:3 bass nm="Bright Piano"
V:4 bass 
V:1
 z4 z2[Q:1/4=100] E2 | [CA]4 [EB]4 | [Ec]4 z2 [EA]2 | [EG]2 [EA]2 [Gd]2 [Ec]2 | %4
 [=Dc]4 [EB]2 [EB]2 | [Ec]4 [Ed]4 | [Ee]4 [Fc]4 | [GB]2 [FA]2 [EG]2 [=DF]2 | =D2 z2 z4 | %9
 [DE]4 F2 G2 | [CA]4 [CA]2 z2 | [EB]2 [EB]2 [EA]2 [DB]2 | [Cc]4 z2 [Ec]2 | [Ed]4 [Ed]4 | %14
 [Ec]6 [Ec]2 | [EG]4 [DG]4 |[M:3/4] [CA]4 z2 |] %17
V:2
 x8 | x8 | x8 | x8 | x8 | x8 | x8 | x8 | F2- [B,F]2 [B,E]2 [B,E]2 | z4 D4 | x8 | x8 | x8 | x8 | %14
 x8 | x8 |[M:3/4] x6 |] %17
V:3
 z4 z2 E,2 | E,4 G,4 | A,4 z2[K:treble] C2 | D2 C2 B,2 A,2 | A,4 B,2 D2 | C4 B,4 | C4 A,4 | %7
 G,2 B,2 B,2 A,2 | A,4 G,2 G,2 | B,4 B,4 | A,4 A,2 z2 | D2 D2 C2 G,2 | A,4 z2[K:bass] A,2 | %13
 G,4 G,4 | A,6 A,2 | D4 B,4 |[M:3/4] A,4 z2 |] %17
V:4
 z8 | A,,4 E,4 | A,,4 z2 A,,2 | E,2 E,2 E,2 z2 | F,4 G,2 G,2 | A,4 G,4 | A,4 =D,4 | %7
 E,2 B,,2 B,,2 B,,2 | B,,2 C,=D, E,2 E,2 | G,4 E,4 | A,,4 z4 | G,2 G,2 A,2 E,2 | A,,4 z2 A,,2 | %13
 B,,4 B,,4 | A,,6 A,,2 | E,4 E,4 |[M:3/4] A,,4 z2 |] %17

